weblancer/images/phone.svg

<svg width="20" height="20" viewBox="0 0 20 20" fill="none" xmlns="http://www.w3.org/2000/svg">
<path d="M19.4347 14.678L16.6436 11.8869C15.6468 10.8901 13.9522 11.2889 13.5535 12.5847C13.2545 13.4819 12.2576 13.9803 11.3605 13.7809C9.3669 13.2825 6.67552 10.6908 6.17712 8.59746C5.87808 7.7003 6.47616 6.70349 7.37329 6.40448C8.66914 6.00576 9.06786 4.31119 8.07106 3.31438L5.27999 0.523324C4.48255 -0.174441 3.28638 -0.174441 2.58862 0.523324L0.694682 2.41726C-1.19925 4.41087 0.894043 9.69395 5.57904 14.3789C10.264 19.0639 15.5471 21.2569 17.5407 19.2633L19.4347 17.3694C20.1325 16.5719 20.1325 15.3757 19.4347 14.678Z" fill="white"/>
</svg>

<svg width="20" height="20" fill="none" xmlns="http://www.w3.org/2000/svg"><path d="M19.435 14.678l-2.791-2.791c-.997-.997-2.692-.598-3.09.698-.3.897-1.296 1.395-2.194 1.196-1.993-.498-4.684-3.09-5.183-5.184-.299-.897.3-1.894 1.196-2.193 1.296-.398 1.695-2.093.698-3.09L5.28.524c-.797-.698-1.994-.698-2.691 0L.695 2.416C-1.2 4.411.894 9.694 5.579 14.38c4.685 4.685 9.968 6.878 11.962 4.884l1.894-1.894c.698-.797.698-1.993 0-2.691z" fill="#fff"/></svg>
